src/assets/images/24.svg

<?xml version="1.0" encoding="UTF-8"?>
<svg width="32px" height="32px" viewBox="0 0 32 32" version="1.1" xmlns="http://www.w3.org/2000/svg" xmlns:xlink="http://www.w3.org/1999/xlink">
    <title>C23D394D-10D8-4427-8EC4-774EC7D297C1</title>
    <g id="aimedis" stroke="none" stroke-width="1" fill="none" fill-rule="evenodd">
        <g id="UI---Patient---More---Extra-Services" transform="translate(-361.000000, -192.000000)">
            <g id="Group-12-Copy-8" transform="translate(232.000000, 168.000000)">
                <g id="24" transform="translate(129.000000, 24.000000)">
                    <g id="Frame_-_24px">
                        <rect id="Rectangle" x="0" y="0" width="32" height="32"></rect>
                    </g>
                    <g id="Filled_Icons" fill="#00ABAF" fill-rule="nonzero">
                        <g id="Group">
                            <path d="M8.572,14.8586667 L10.8586667,14.8586667 L10.8586667,13.7146667 C10.8586667,13.084 11.372,12.572 12,12.572 C12.6306667,12.572 13.1426667,13.084 13.1426667,13.7146667 C13.1426667,14.8306667 10.944,17.724 8.90533333,19.7653333 C8.57866667,20.0933333 8.48133333,20.5826667 8.65733333,21.0106667 C8.83466667,21.4386667 9.25066667,21.716 9.71333333,21.716 L15.4266667,21.716 L15.4266667,19.432 L12.316,19.432 C13.7386667,17.7493333 15.428,15.4053333 15.428,13.716 C15.428,11.8253333 13.8906667,10.288 12,10.288 C10.1093333,10.288 8.572,11.8253333 8.572,13.716 L8.572,14.8586667 Z" id="Path"></path>
                            <path d="M21.4733333,10.336 C20.9933333,10.1866667 20.472,10.3773333 20.1906667,10.7946667 L15.62,17.652 C15.3853333,18.0026667 15.3653333,18.4533333 15.5626667,18.8253333 C15.7613333,19.196 16.148,19.4306667 16.5706667,19.4306667 L20,19.4306667 L20,21.7133333 L22.2853333,21.7133333 L22.2853333,19.4306667 L23.428,19.4306667 L23.428,17.144 L22.2853333,17.144 L22.2853333,11.4306667 C22.2853333,10.9253333 21.9573333,10.48 21.4733333,10.336 Z M20,17.144 L18.7066667,17.144 L20,15.2026667 L20,17.144 Z" id="Shape"></path>
                            <path d="M16,-0.00133333333 C14.6173333,-0.00133333333 13.2813333,0.192 12,0.525333333 L12,3.28133333 C13.2626667,2.88266667 14.6066667,2.66666667 16,2.66666667 C23.352,2.66666667 29.3333333,8.648 29.3333333,16 C29.3333333,23.3533333 23.352,29.3333333 16,29.3333333 C8.648,29.3333333 2.66666667,23.3533333 2.66666667,16 C2.66666667,12.2813333 4.20266667,8.92533333 6.66666667,6.50666667 L6.66666667,10.6653333 L9.33333333,10.6653333 L9.33333333,2.66666667 L1.33333333,2.66666667 L1.33333333,5.33333333 L4.104,5.33333333 C1.56,8.164 0,11.9 0,16 C0,24.8226667 7.17733333,32 16,32 C24.8226667,32 32,24.8226667 32,16 C32,7.17733333 24.8226667,-0.00133333333 16,-0.00133333333 Z" id="Path"></path>
                        </g>
                    </g>
                </g>
            </g>
        </g>
    </g>
</svg>

<svg width="32" height="32" xmlns="http://www.w3.org/2000/svg"><g fill="none" fill-rule="evenodd"><path d="M0 0h32v32H0z"/><g fill="#00ABAF" fill-rule="nonzero"><path d="M8.572 14.859h2.287v-1.144c0-.631.513-1.143 1.141-1.143.63 0 1.143.512 1.143 1.143 0 1.116-2.199 4.009-4.238 6.05a1.141 1.141 0 0 0 .808 1.95l5.714.001v-2.284h-3.111c1.423-1.683 3.112-4.027 3.112-5.716A3.431 3.431 0 0 0 12 10.288a3.431 3.431 0 0 0-3.428 3.428v1.143Z"/><path d="M21.473 10.336a1.143 1.143 0 0 0-1.282.459l-4.571 6.857a1.145 1.145 0 0 0 .95 1.779H20v2.282h2.285v-2.282h1.143v-2.287h-1.143v-5.713c0-.506-.328-.951-.812-1.095ZM20 17.144h-1.293L20 15.203v1.941Z"/><path d="M16-.001c-1.383 0-2.719.193-4 .526v2.756a13.266 13.266 0 0 1 4-.614c7.352 0 13.333 5.981 13.333 13.333 0 7.353-5.981 13.333-13.333 13.333S2.667 23.353 2.667 16c0-3.719 1.536-7.075 4-9.493v4.158h2.666V2.667h-8v2.666h2.771C1.56 8.164 0 11.9 0 16c0 8.823 7.177 16 16 16s16-7.177 16-16S24.823-.001 16-.001Z"/></g></g></svg>
